X: 42155
T: Water Is Wide, The
R: waltz
M: 3/4
K: Dmajor
M:4/4
z A, D/D/ E|F4-|F F/E/ D B,|A,4-|A, A, D C|D4-|
D E/F/ G F|E4-|E E F G|A4-|
A G/F/ E D|F4-|
F E D B,|A,4-|A, A, B,/ D E/|D4-|D z z2||

